lib/healthicons/icons/solid/medications/pills_4.svg

<svg fill="none" height="48" viewBox="0 0 48 48" width="48" xmlns="http://www.w3.org/2000/svg"><path d="m22 14.5c0 4.1421-3.3579 7.5-7.5 7.5s-7.5-3.3579-7.5-7.5 3.3579-7.5 7.5-7.5 7.5 3.3579 7.5 7.5zm-3.3891-.325c.9208-.6102 1.1725-1.8513.5622-2.772-.6102-.9207-1.8512-1.1724-2.7719-.5622l-6.012 3.9845c-.92072.6102-1.17243 1.8513-.56221 2.772.61021.9207 1.85131 1.1724 2.77201.5622zm22.3891.325c0 4.1421-3.3579 7.5-7.5 7.5s-7.5-3.3579-7.5-7.5 3.3579-7.5 7.5-7.5 7.5 3.3579 7.5 7.5zm-6.8745-4.0759c-.3829-1.03602-1.5333-1.56544-2.5693-1.18246-1.0361.38298-1.5655 1.53336-1.1825 2.56936l2.5007 6.7651c.383 1.0361 1.5333 1.5655 2.5694 1.1825 1.036-.383 1.5655-1.5333 1.1825-2.5694zm-12.1255 23.0759c0 4.1421-3.3579 7.5-7.5 7.5s-7.5-3.3579-7.5-7.5 3.3579-7.5 7.5-7.5 7.5 3.3579 7.5 7.5zm-7.9562 4.0986c.4256 1.0193 1.5969 1.5006 2.6162 1.0751 1.0193-.4256 1.5006-1.5969 1.075-2.6162l-2.7788-6.6557c-.4255-1.0193-1.5968-1.5006-2.6161-1.075-1.0193.4255-1.5006 1.5968-1.0751 2.6161zm26.9562-4.0986c0 4.1421-3.3579 7.5-7.5 7.5s-7.5-3.3579-7.5-7.5 3.3579-7.5 7.5-7.5 7.5 3.3579 7.5 7.5zm-3.4628-.8401c.8365-.7214.9299-1.9842.2086-2.8208-.7213-.8365-1.9842-.9299-2.8207-.2086l-5.4623 4.71c-.8365.7213-.9299 1.9842-.2086 2.8207s1.9842.9299 2.8207.2086z" fill="#333" stroke="#333" stroke-width="2"/></svg>

<svg width="48" height="48" viewBox="0 0 48 48" fill="none" xmlns="http://www.w3.org/2000/svg">
<path d="M22 14.5C22 18.6421 18.6421 22 14.5 22C10.3579 22 7 18.6421 7 14.5C7 10.3579 10.3579 7 14.5 7C18.6421 7 22 10.3579 22 14.5ZM18.6109 14.175C19.5317 13.5648 19.7834 12.3237 19.1731 11.403C18.5629 10.4823 17.3219 10.2306 16.4012 10.8408L10.3892 14.8253C9.46848 15.4355 9.21677 16.6766 9.82699 17.5973C10.4372 18.518 11.6783 18.7697 12.599 18.1595L18.6109 14.175ZM41 14.5C41 18.6421 37.6421 22 33.5 22C29.3579 22 26 18.6421 26 14.5C26 10.3579 29.3579 7 33.5 7C37.6421 7 41 10.3579 41 14.5ZM34.1255 10.4241C33.7426 9.38808 32.5922 8.85866 31.5562 9.24164C30.5201 9.62462 29.9907 10.775 30.3737 11.811L32.8744 18.5761C33.2574 19.6122 34.4077 20.1416 35.4438 19.7586C36.4798 19.3756 37.0093 18.2253 36.6263 17.1892L34.1255 10.4241ZM22 33.5C22 37.6421 18.6421 41 14.5 41C10.3579 41 7 37.6421 7 33.5C7 29.3579 10.3579 26 14.5 26C18.6421 26 22 29.3579 22 33.5ZM14.0438 37.5986C14.4694 38.6179 15.6407 39.0992 16.66 38.6737C17.6793 38.2481 18.1606 37.0768 17.735 36.0575L14.9562 29.4018C14.5307 28.3825 13.3594 27.9012 12.3401 28.3268C11.3208 28.7523 10.8395 29.9236 11.265 30.9429L14.0438 37.5986ZM41 33.5C41 37.6421 37.6421 41 33.5 41C29.3579 41 26 37.6421 26 33.5C26 29.3579 29.3579 26 33.5 26C37.6421 26 41 29.3579 41 33.5ZM37.5372 32.6599C38.3737 31.9385 38.4671 30.6757 37.7458 29.8391C37.0245 29.0026 35.7616 28.9092 34.9251 29.6305L29.4628 34.3405C28.6263 35.0618 28.5329 36.3247 29.2542 37.1612C29.9755 37.9977 31.2384 38.0911 32.0749 37.3698L37.5372 32.6599Z" fill="#333333" stroke="#333333" stroke-width="2"/>
</svg>
